src/images/home/cloud.svg

<svg fill="none" height="100" viewBox="0 0 100 100" width="100" xmlns="http://www.w3.org/2000/svg"><path d="m0 0h100v100h-100z" fill="#fff"/><rect height="8.95312" rx="1.5" stroke="#000" width="47.3438" x="24.4062" y="49.2031"/><g fill="#4fc4f9"><path d="m28.1719 52.9688h28.4375v1.42188h-28.4375z"/><path d="m0 0h2.84375v1.42188h-2.84375z" transform="matrix(-1 0 0 1 67.9844 52.9688)"/><path d="m0 0h2.84375v1.42188h-2.84375z" transform="matrix(-1 0 0 1 62.2969 52.9688)"/></g><rect height="8.95312" rx="1.5" stroke="#000" width="47.3438" x="24.4062" y="63.4219"/><path d="m28.1719 67.1875h28.4375v1.42188h-28.4375z" fill="#4fc4f9"/><path d="m0 0h2.84375v1.42188h-2.84375z" fill="#4fc4f9" transform="matrix(-1 0 0 1 67.9844 67.1875)"/><path d="m0 0h2.84375v1.42188h-2.84375z" fill="#4fc4f9" transform="matrix(-1 0 0 1 62.2969 67.1875)"/><rect height="8.95312" rx="1.5" stroke="#000" width="47.3438" x="24.4062" y="77.6406"/><path d="m28.1719 81.4062h28.4375v1.42188h-28.4375z" fill="#4fc4f9"/><path d="m0 0h2.84375v1.42188h-2.84375z" fill="#4fc4f9" transform="matrix(-1 0 0 1 67.9844 81.4062)"/><path d="m0 0h2.84375v1.42188h-2.84375z" fill="#4fc4f9" transform="matrix(-1 0 0 1 62.2969 81.4062)"/><path clip-rule="evenodd" d="m14.7111 33.1275.1863.4641.1862.464c.3101-.1245.625-.2395.9444-.3448l.5738-.1893.0994-.596c.0512-.3074.1083-.6128.1712-.9162l-.4896-.1014-.4896-.1015c-.0655.3161-.125.6343-.1784.9547-.3394.1119-.6741.2342-1.0037.3664zm-1.6846 1.3553-.2429-.437c-.6243.3471-1.2246.7322-1.7976 1.1522l.2956.4033.2956.4033c.5396-.3955 1.1047-.7581 1.6923-1.0848zm-3.33733 2.4458-.34341-.3634c-.51757.4891-1.00454 1.0102-1.45774 1.5602l.38587.318.38588.3179c.42678-.5179.88538-1.0087 1.37283-1.4693zm-2.63121 3.1936-.42246-.2675c-.3797.5998-.72303 1.2249-1.02689 1.8722l.45261.2125.45261.2124c.28597-.6091.60913-1.1975.9666-1.7622zm-1.75739 3.7446-.47574-.1539c-.21745.6723-.39431 1.3628-.52769 2.0688l.49131.0928.4913.0928c.12552-.6643.29195-1.3141.49655-1.9467zm-.76862 4.0644-.49904-.0308c-.02183.3533-.03291.7095-.03291 1.0684 0 .335.00966.6677.0287.998l.49917-.0288.49917-.0288c-.01794-.3111-.02704-.6247-.02704-.9404 0-.3383.01044-.674.031-1.0068zm.21963 3.9298-.49243.0867c.11635.6608.27073 1.3085.46079 1.9407l.47883-.1439.47883-.144c-.17883-.5948-.3241-1.2043-.4336-1.8262zm1.11254 3.7009-.45859.1992c.26617.6127.56725 1.2067.90073 1.7796l.43211-.2516.43211-.2515c-.31392-.5393-.59729-1.0984-.84776-1.6749zm1.94445 3.3408-.39986.3002c.39983.5325.83009 1.041 1.2882 1.5226l.36231-.3445.36231-.3446c-.43144-.4536-.83662-.9324-1.2131-1.4339zm2.66443 2.8016-.3199.3843c.5105.4249 1.0462.8206 1.6046 1.1846l.273-.4189.273-.4189c-.5256-.3426-1.0301-.7152-1.5108-1.1154zm8.7458 4.3269h-.2891-.2109-.5v-.0589-.118-.059c-.3297-.0553-.6562-.12-.9792-.194l.1115-.4874.1116-.4874c.3039.0696.6112.1306.9215.1826l.8346.14v.8462.059h-.2891v.118h.2891zm57.7031-.5v.5h1.0156c.3212 0 .6404-.0088.9572-.0263l-.0276-.4993-.0276-.4992c-.2985.0165-.5992.0248-.902.0248h-1.0156zm5.741-.1628c-.6087.1751-1.2314.3172-1.8659.4243l-.0832-.493-.0832-.4931c.5972-.1007 1.1832-.2345 1.7559-.3992l.1382.4805zm1.6144-1.0937.1915.4618c.5921-.2455 1.1673-.5234 1.7235-.8314l-.2422-.4374-.2423-.4374c-.5235.29-1.0649.5515-1.622.7825zm5.0298-2.5832c-.4753.425-.9745.8237-1.4954 1.194l-.2896-.4076-.2897-.4075c.4904-.3486.9605-.7241 1.4081-1.1244l.3333.3727zm.9804-1.6865.3727.3333c.425-.4752.8238-.9744 1.194-1.4953l-.4075-.2897-.4076-.2897c-.3486.4905-.7241.9606-1.1243 1.4081zm2.1489-3.0237.4374.2423c.3081-.5562.586-1.1315.8315-1.7235l-.4619-.1916-.4618-.1915c-.2311.5571-.4926 1.0985-.7826 1.6221zm1.4203-3.4253.4805.1382c.1751-.6087.3172-1.2314.4242-1.866l-.493-.0832-.493-.0832c-.1008.5973-.2345 1.1832-.3992 1.756zm.6177-3.6576.4992.0276c.0175-.3169.0264-.636.0264-.9572 0-.3269-.0092-.6517-.0273-.974l-.4992.0281-.4993.0281c.0171.3036.0258.6096.0258.9178 0 .3027-.0084.6035-.0249.902zm-.214-3.7529.4928-.0846c-.1108-.6453-.2578-1.2782-.4389-1.8965l-.4799.1405-.4798.1405c.1704.5818.3088 1.1774.413 1.7847zm-1.0602-3.6197.4606-.1947c-.2538-.6005-.5411-1.1835-.8594-1.7466l-.4352.2461-.4353.246c.2996.5301.5699 1.0787.8088 1.6439zm-1.8562-3.2844.4045-.294c-.3822-.5258-.7937-1.0289-1.2321-1.507l-.3685.3379-.3685.338c.4128.4502.8003.924 1.1602 1.419zm-2.5502-2.7813.3279-.3775c-.4896-.4252-1.0035-.823-1.5396-1.191l-.283.4123-.2829.4122c.5047.3464.9887.721 1.4497 1.1215zm-3.1108-2.135.2342-.4418c-.5714-.3028-1.162-.5742-1.7695-.8117l-.182.4657-.1821.4657c.5717.2235 1.1275.4788 1.6652.7639zm-6.0559-4.7663.437-.243c-.347-.6243-.7322-1.2246-1.1522-1.7978l-.4033.2956-.4033.2956c.3955.5396.7581 1.1048 1.0848 1.6925zm-2.4458-3.3378.3635-.3434c-.4891-.5176-1.0102-1.0046-1.5603-1.4579l-.3179.3859-.318.3859c.5179.4268 1.0087.8854 1.4693 1.3729zm-3.1936-2.6315.2675-.4224c-.5999-.3798-1.225-.7232-1.8723-1.027l-.2125.4526-.2125.4526c.6092.286 1.1977.6092 1.7623.9667zm-3.7448-1.7576.1539-.4757c-.6723-.2175-1.3629-.3944-2.0689-.5278l-.0928.4913-.0929.4913c.6644.1256 1.3142.292 1.9468.4966zm-4.0646-.7687.0308-.499c-.3534-.0219-.7096-.033-1.0685-.033-.4618 0-.9194.0184-1.3719.0544l.0396.4984.0397.4985c.4262-.034.8573-.0513 1.2926-.0513.3383 0 .674.0105 1.0068.0311zm-8.6521-1.3945.3541-.353c-.4389-.4402-.8941-.8641-1.3648-1.2707l-.3268.3784-.3269.3784c.4519.3903.8889.7973 1.3103 1.2199zm-4.0049-3.8428c.5265.3323 1.0397.6839 1.5386 1.0536l-.2978.4017-.2977.4017c-.4789-.355-.9715-.6924-1.4769-1.0114l.2669-.4228zm-1.8476-.494.2345-.4416c-.5478-.2908-1.1077-.5617-1.6787-.8117l-.2006.458-.2005.458c.5479.24 1.0852.4999 1.6109.779zm-3.3448-1.4645.1654-.4719c-.5843-.2049-1.1786-.3886-1.7819-.5502l-.1294.483-.1293.483c.5789.155 1.1491.3313 1.7097.5279zm-3.527-.9448.0926-.4914c-.6073-.1144-1.2223-.2068-1.8443-.2763l-.0555.4969-.0555.497c.5971.0666 1.1874.1553 1.7701.2651zm-3.6297-.4058.0185-.4996c-.3096-.0114-.6206-.0172-.9329-.0172-.3253 0-.6491.0062-.9714.0186l.0192.4996.0192.4997c.3095-.0119.6205-.0179.933-.0179.3001 0 .5988.0055.896.0165zm-3.7639.1479-.0578-.4967c-.6471.0753-1.2866.1755-1.9176.2994l.0964.4907.0964.4906c.6055-.119 1.2193-.2151 1.8404-.2874zm-3.7288.7329-.1346-.4816c-.6262.1751-1.2425.374-1.8478.5958l.172.4695.172.4694c.5808-.2128 1.1721-.4036 1.773-.5716zm-3.5692 1.3077-.2083-.4546c-.59.2704-1.1675.5632-1.7316.8772l.2433.4369.2432.4368c.5413-.3014 1.0956-.5824 1.6617-.8418zm-3.3211 1.8489-.2765-.4165c-.5399.3584-1.065.7374-1.5742 1.1357l.3081.3938.3081.3938c.4888-.3824.9929-.7461 1.5111-1.0902zm-2.9944 2.3425-.3377-.3687c-.4773.4372-.9376.8927-1.3796 1.3655l.3653.3415.3652.3415c.4244-.454.8662-.8913 1.3245-1.311zm-2.5963 2.7773-.3906-.3121c-.4037.5051-.788 1.0263-1.152 1.5624l.4137.2808.4137.2809c.3494-.5147.7183-1.015 1.1058-1.4999zm-2.1352 3.1455-.4343-.2477c-.3199.5608-.6186 1.1353-.8951 1.7223l.4524.213.4523.213c.2653-.5633.552-1.1146.859-1.6528zm-2.2215 5.2424-.4802-.1397c.1816-.6241.3869-1.2382.6149-1.8411l.4677.1769.4676.1769c-.2188.5785-.4158 1.1677-.5899 1.7666zm41.9255-9.0517.3794-.3257c.2024.2358.4005.4755.5941.7188.4323-.1441.8722-.2713 1.3191-.381l.1192.4856.1191.4856c-.4204.1032-.8344.2229-1.2411.3585l-.6634.2212-.4354-.5473c-.1859-.2336-.376-.4637-.5704-.6901zm21.751 10.4196.464-.1862c.1322.3296.2545.6643.3664 1.0037.3196.0648.6359.1386.9487.2211l-.1274.4834-.1274.4835c-.2943-.0775-.592-.1469-.8927-.208l-.5691-.1154-.1818-.5515c-.1053-.3194-.2203-.6343-.3448-.9445zm-65.025 33.142-.168.4709c-.6299-.2249-1.2427-.4857-1.836-.78l.2222-.4479.2223-.4479c.5583.277 1.135.5224 1.7276.734z" fill="#000" fill-rule="evenodd"/><path clip-rule="evenodd" d="m47 32-6-6-6 6h3.1716v8.1421h5.6568v-8.1421z" fill="#4fc4f9" fill-rule="evenodd"/><path clip-rule="evenodd" d="m64 40.1421-6 6-6-6h3.1716v-8.1421h5.6568v8.1421z" fill="#4fc4f9" fill-rule="evenodd"/></svg>

<svg width="100" height="100" viewBox="0 0 100 100" fill="none" xmlns="http://www.w3.org/2000/svg">
<rect width="100" height="100" fill="white"/>
<rect x="24.4062" y="49.2031" width="47.3438" height="8.95312" rx="1.5" stroke="black"/>
<rect x="28.1719" y="52.9688" width="28.4375" height="1.42188" fill="#4FC4F9"/>
<rect width="2.84375" height="1.42188" transform="matrix(-1 0 0 1 67.9844 52.9688)" fill="#4FC4F9"/>
<rect width="2.84375" height="1.42188" transform="matrix(-1 0 0 1 62.2969 52.9688)" fill="#4FC4F9"/>
<rect x="24.4062" y="63.4219" width="47.3438" height="8.95312" rx="1.5" stroke="black"/>
<rect x="28.1719" y="67.1875" width="28.4375" height="1.42188" fill="#4FC4F9"/>
<rect width="2.84375" height="1.42188" transform="matrix(-1 0 0 1 67.9844 67.1875)" fill="#4FC4F9"/>
<rect width="2.84375" height="1.42188" transform="matrix(-1 0 0 1 62.2969 67.1875)" fill="#4FC4F9"/>
<rect x="24.4062" y="77.6406" width="47.3438" height="8.95312" rx="1.5" stroke="black"/>
<rect x="28.1719" y="81.4062" width="28.4375" height="1.42188" fill="#4FC4F9"/>
<rect width="2.84375" height="1.42188" transform="matrix(-1 0 0 1 67.9844 81.4062)" fill="#4FC4F9"/>
<rect width="2.84375" height="1.42188" transform="matrix(-1 0 0 1 62.2969 81.4062)" fill="#4FC4F9"/>
<path fill-rule="evenodd" clip-rule="evenodd" d="M14.7111 33.1275L14.8974 33.5916L15.0836 34.0556C15.3937 33.9311 15.7086 33.8161 16.028 33.7108L16.6018 33.5215L16.7012 32.9255C16.7524 32.6181 16.8095 32.3127 16.8724 32.0093L16.3828 31.9079L15.8932 31.8064C15.8277 32.1225 15.7682 32.4407 15.7148 32.7611C15.3754 32.873 15.0407 32.9953 14.7111 33.1275ZM13.0265 34.4828L12.7836 34.0458C12.1593 34.3929 11.559 34.778 10.986 35.198L11.2816 35.6013L11.5772 36.0046C12.1168 35.6091 12.6819 35.2465 13.2695 34.9198L13.0265 34.4828ZM9.68917 36.9286L9.34576 36.5652C8.82819 37.0543 8.34122 37.5754 7.88802 38.1254L8.27389 38.4434L8.65977 38.7613C9.08655 38.2434 9.54515 37.7526 10.0326 37.292L9.68917 36.9286ZM7.05796 40.1222L6.6355 39.8547C6.2558 40.4545 5.91247 41.0796 5.60861 41.7269L6.06122 41.9394L6.51383 42.1518C6.7998 41.5427 7.12296 40.9543 7.48043 40.3896L7.05796 40.1222ZM5.30057 43.8668L4.82483 43.7129C4.60738 44.3852 4.43052 45.0757 4.29714 45.7817L4.78845 45.8745L5.27975 45.9673C5.40527 45.303 5.5717 44.6532 5.7763 44.0206L5.30057 43.8668ZM4.53195 47.9312L4.03291 47.9004C4.01108 48.2537 4 48.6099 4 48.9688C4 49.3038 4.00966 49.6365 4.0287 49.9668L4.52787 49.938L5.02704 49.9092C5.0091 49.5981 5 49.2845 5 48.9688C5 48.6305 5.01044 48.2948 5.031 47.962L4.53195 47.9312ZM4.75158 51.861L4.25915 51.9477C4.3755 52.6085 4.52988 53.2562 4.71994 53.8884L5.19877 53.7445L5.6776 53.6005C5.49877 53.0057 5.3535 52.3962 5.244 51.7743L4.75158 51.861ZM5.86412 55.5619L5.40553 55.7611C5.6717 56.3738 5.97278 56.9678 6.30626 57.5407L6.73837 57.2891L7.17048 57.0376C6.85656 56.4983 6.57319 55.9392 6.32272 55.3627L5.86412 55.5619ZM7.80857 58.9027L7.40871 59.2029C7.80854 59.7354 8.2388 60.2439 8.69691 60.7255L9.05922 60.381L9.42153 60.0364C8.99009 59.5828 8.58491 59.104 8.20843 58.6025L7.80857 58.9027ZM10.473 61.7043L10.1531 62.0886C10.6636 62.5135 11.1993 62.9092 11.7577 63.2732L12.0307 62.8543L12.3037 62.4354C11.7781 62.0928 11.2736 61.7202 10.7929 61.32L10.473 61.7043ZM19.2188 66.0312H18.9297H18.7188H18.2188V65.9723V65.8543V65.7953C17.8891 65.74 17.5626 65.6753 17.2396 65.6013L17.3511 65.1139L17.4627 64.6265C17.7666 64.6961 18.0739 64.7571 18.3842 64.8091L19.2188 64.9491V65.7953V65.8543H18.9297V65.9723H19.2188V66.0312ZM76.9219 65.5312V66.0312H77.9375C78.2587 66.0312 78.5779 66.0224 78.8947 66.0049L78.8671 65.5056L78.8395 65.0064C78.541 65.0229 78.2403 65.0312 77.9375 65.0312H76.9219V65.5312ZM82.6629 65.3684C82.0542 65.5435 81.4315 65.6856 80.797 65.7927L80.7138 65.2997L80.6306 64.8066C81.2278 64.7059 81.8138 64.5721 82.3865 64.4074L82.5247 64.8879L82.6629 65.3684ZM84.2773 64.2747L84.4688 64.7365C85.0609 64.491 85.6361 64.2131 86.1923 63.9051L85.9501 63.4677L85.7078 63.0303C85.1843 63.3203 84.6429 63.5818 84.0858 63.8128L84.2773 64.2747ZM89.3071 61.6915C88.8318 62.1165 88.3326 62.5152 87.8117 62.8855L87.5221 62.4779L87.2324 62.0704C87.7228 61.7218 88.1929 61.3463 88.6405 60.946L88.9738 61.3187L89.3071 61.6915ZM90.2875 60.005L90.6602 60.3383C91.0852 59.8631 91.484 59.3639 91.8542 58.843L91.4467 58.5533L91.0391 58.2636C90.6905 58.7541 90.315 59.2242 89.9148 59.6717L90.2875 60.005ZM92.4364 56.9813L92.8738 57.2236C93.1819 56.6674 93.4598 56.0921 93.7053 55.5001L93.2434 55.3085L92.7816 55.117C92.5505 55.6741 92.289 56.2155 91.999 56.7391L92.4364 56.9813ZM93.8567 53.556L94.3372 53.6942C94.5123 53.0855 94.6544 52.4628 94.7614 51.8282L94.2684 51.745L93.7754 51.6618C93.6746 52.2591 93.5409 52.845 93.3762 53.4178L93.8567 53.556ZM94.4744 49.8984L94.9736 49.926C94.9911 49.6091 95 49.29 95 48.9688C95 48.6419 94.9908 48.3171 94.9727 47.9948L94.4735 48.0229L93.9742 48.051C93.9913 48.3546 94 48.6606 94 48.9688C94 49.2715 93.9916 49.5723 93.9751 49.8708L94.4744 49.8984ZM94.2604 46.1455L94.7532 46.0609C94.6424 45.4156 94.4954 44.7827 94.3143 44.1644L93.8344 44.3049L93.3546 44.4454C93.525 45.0272 93.6634 45.6228 93.7676 46.2301L94.2604 46.1455ZM93.2002 42.5258L93.6608 42.3311C93.407 41.7306 93.1197 41.1476 92.8014 40.5845L92.3662 40.8306L91.9309 41.0766C92.2305 41.6067 92.5008 42.1553 92.7397 42.7205L93.2002 42.5258ZM91.344 39.2414L91.7485 38.9474C91.3663 38.4216 90.9548 37.9185 90.5164 37.4404L90.1479 37.7783L89.7794 38.1163C90.1922 38.5665 90.5797 39.0403 90.9396 39.5353L91.344 39.2414ZM88.7938 36.4601L89.1217 36.0826C88.6321 35.6574 88.1182 35.2596 87.5821 34.8916L87.2991 35.3039L87.0162 35.7161C87.5209 36.0625 88.0049 36.4371 88.4659 36.8376L88.7938 36.4601ZM85.683 34.3251L85.9172 33.8833C85.3458 33.5805 84.7552 33.3091 84.1477 33.0716L83.9657 33.5373L83.7836 34.003C84.3553 34.2265 84.9111 34.4818 85.4488 34.7669L85.683 34.3251ZM79.6271 29.5588L80.0641 29.3158C79.7171 28.6915 79.3319 28.0912 78.9119 27.518L78.5086 27.8136L78.1053 28.1092C78.5008 28.6488 78.8634 29.214 79.1901 29.8017L79.6271 29.5588ZM77.1813 26.221L77.5448 25.8776C77.0557 25.36 76.5346 24.873 75.9845 24.4197L75.6666 24.8056L75.3486 25.1915C75.8665 25.6183 76.3573 26.0769 76.8179 26.5644L77.1813 26.221ZM73.9877 23.5895L74.2552 23.1671C73.6553 22.7873 73.0302 22.4439 72.3829 22.1401L72.1704 22.5927L71.9579 23.0453C72.5671 23.3313 73.1556 23.6545 73.7202 24.012L73.9877 23.5895ZM70.2429 21.8319L70.3968 21.3562C69.7245 21.1387 69.0339 20.9618 68.3279 20.8284L68.2351 21.3197L68.1422 21.811C68.8066 21.9366 69.4564 22.103 70.089 22.3076L70.2429 21.8319ZM66.1783 21.0632L66.2091 20.5642C65.8557 20.5423 65.4995 20.5312 65.1406 20.5312C64.6788 20.5312 64.2212 20.5496 63.7687 20.5856L63.8083 21.084L63.848 21.5825C64.2742 21.5485 64.7053 21.5312 65.1406 21.5312C65.4789 21.5312 65.8146 21.5417 66.1474 21.5623L66.1783 21.0632ZM57.5262 19.6687L57.8803 19.3157C57.4414 18.8755 56.9862 18.4516 56.5155 18.045L56.1887 18.4234L55.8618 18.8018C56.3137 19.1921 56.7507 19.5991 57.1721 20.0217L57.5262 19.6687ZM53.5213 15.8259C54.0478 16.1582 54.561 16.5098 55.0599 16.8795L54.7621 17.2812L54.4644 17.6829C53.9855 17.3279 53.4929 16.9905 52.9875 16.6715L53.2544 16.2487L53.5213 15.8259ZM51.6737 15.3319L51.9082 14.8903C51.3604 14.5995 50.8005 14.3286 50.2295 14.0786L50.0289 14.5366L49.8284 14.9946C50.3763 15.2346 50.9136 15.4945 51.4393 15.7736L51.6737 15.3319ZM48.3289 13.8674L48.4943 13.3955C47.91 13.1906 47.3157 13.0069 46.7124 12.8453L46.583 13.3283L46.4537 13.8113C47.0326 13.9663 47.6028 14.1426 48.1634 14.3392L48.3289 13.8674ZM44.8019 12.9226L44.8945 12.4312C44.2872 12.3168 43.6722 12.2244 43.0502 12.1549L42.9947 12.6518L42.9392 13.1488C43.5363 13.2154 44.1266 13.3041 44.7093 13.4139L44.8019 12.9226ZM41.1722 12.5168L41.1907 12.0172C40.8811 12.0058 40.5701 12 40.2578 12C39.9325 12 39.6087 12.0062 39.2864 12.0186L39.3056 12.5182L39.3248 13.0179C39.6343 13.006 39.9453 13 40.2578 13C40.5579 13 40.8566 13.0055 41.1538 13.0165L41.1722 12.5168ZM37.4083 12.6647L37.3505 12.168C36.7034 12.2433 36.0639 12.3435 35.4329 12.4674L35.5293 12.9581L35.6257 13.4487C36.2312 13.3297 36.845 13.2336 37.4661 13.1613L37.4083 12.6647ZM33.6795 13.3976L33.5449 12.916C32.9187 13.0911 32.3024 13.29 31.6971 13.5118L31.8691 13.9813L32.0411 14.4507C32.6219 14.2379 33.2132 14.0471 33.8141 13.8791L33.6795 13.3976ZM30.1103 14.7053L29.902 14.2507C29.312 14.5211 28.7345 14.8139 28.1704 15.1279L28.4137 15.5648L28.6569 16.0016C29.1982 15.7002 29.7525 15.4192 30.3186 15.1598L30.1103 14.7053ZM26.7892 16.5542L26.5127 16.1377C25.9728 16.4961 25.4477 16.8751 24.9385 17.2734L25.2466 17.6672L25.5547 18.061C26.0435 17.6786 26.5476 17.3149 27.0658 16.9708L26.7892 16.5542ZM23.7948 18.8967L23.4571 18.528C22.9798 18.9652 22.5195 19.4207 22.0775 19.8935L22.4428 20.235L22.808 20.5765C23.2324 20.1225 23.6742 19.6852 24.1325 19.2655L23.7948 18.8967ZM21.1985 21.674L20.8079 21.3619C20.4042 21.867 20.0199 22.3882 19.6559 22.9243L20.0696 23.2051L20.4833 23.486C20.8327 22.9713 21.2016 22.471 21.5891 21.9861L21.1985 21.674ZM19.0633 24.8195L18.629 24.5718C18.3091 25.1326 18.0104 25.7071 17.7339 26.2941L18.1863 26.5071L18.6386 26.7201C18.9039 26.1568 19.1906 25.6055 19.4976 25.0673L19.0633 24.8195ZM16.8418 30.0619L16.3616 29.9222C16.5432 29.2981 16.7485 28.684 16.9765 28.0811L17.4442 28.258L17.9118 28.4349C17.693 29.0134 17.496 29.6026 17.3219 30.2015L16.8418 30.0619ZM58.7673 21.0102L59.1467 20.6845C59.3491 20.9203 59.5472 21.16 59.7408 21.4033C60.1731 21.2592 60.613 21.132 61.0599 21.0223L61.1791 21.5079L61.2982 21.9935C60.8778 22.0967 60.4638 22.2164 60.0571 22.352L59.3937 22.5732L58.9583 22.0259C58.7724 21.7923 58.5823 21.5622 58.3879 21.3358L58.7673 21.0102ZM80.5183 31.4298L80.9823 31.2436C81.1145 31.5732 81.2368 31.9079 81.3487 32.2473C81.6683 32.3121 81.9846 32.3859 82.2974 32.4684L82.17 32.9518L82.0426 33.4353C81.7483 33.3578 81.4506 33.2884 81.1499 33.2273L80.5808 33.1119L80.399 32.5604C80.2937 32.241 80.1787 31.9261 80.0542 31.6159L80.5183 31.4298ZM15.4933 64.5718L15.3253 65.0427C14.6954 64.8178 14.0826 64.557 13.4893 64.2627L13.7115 63.8148L13.9338 63.3669C14.4921 63.6439 15.0688 63.8893 15.6614 64.1009L15.4933 64.5718Z" fill="black"/>
<path fill-rule="evenodd" clip-rule="evenodd" d="M47 32L41 26L35 32H38.1716V40.1421H43.8284V32H47Z" fill="#4FC4F9"/>
<path fill-rule="evenodd" clip-rule="evenodd" d="M64 40.1421L58 46.1421L52 40.1421H55.1716V32H60.8284V40.1421H64Z" fill="#4FC4F9"/>
</svg>
